X: 37339
T: Slagging, The
R: jig
M: 6/8
K: Adorian
ABc BAG|d2 B cBA|GAB cBA|BGE DEG|
ABc BAG|d2g edB|cBA GAB|AGE DEG:|
|:ABc g2 a|fge fdf|geb geg|fdf gec|
ABc efg|faf geg|b2g efg|1 fed e2e:|2 fed ecB||

